svg/business/flag_4_line.svg

<?xml version="1.0" encoding="UTF-8"?>
<svg width="24px" height="24px" viewBox="0 0 24 24" version="1.1" xmlns="http://www.w3.org/2000/svg" xmlns:xlink="http://www.w3.org/1999/xlink">
    <title>flag_4_line</title>
    <g id="页面-1" stroke="none" stroke-width="1" fill="none" fill-rule="evenodd">
        <g id="Business" transform="translate(-864.000000, -192.000000)">
            <g id="flag_4_line" transform="translate(864.000000, 192.000000)">
                <path d="M24,0 L24,24 L0,24 L0,0 L24,0 Z M12.5934901,23.257841 L12.5819402,23.2595131 L12.5108777,23.2950439 L12.4918791,23.2987469 L12.4918791,23.2987469 L12.4767152,23.2950439 L12.4056548,23.2595131 C12.3958229,23.2563662 12.3870493,23.2590235 12.3821421,23.2649074 L12.3780323,23.275831 L12.360941,23.7031097 L12.3658947,23.7234994 L12.3769048,23.7357139 L12.4804777,23.8096931 L12.4953491,23.8136134 L12.4953491,23.8136134 L12.5071152,23.8096931 L12.6106902,23.7357139 L12.6232938,23.7196733 L12.6232938,23.7196733 L12.6266527,23.7031097 L12.609561,23.275831 C12.6075724,23.2657013 12.6010112,23.2592993 12.5934901,23.257841 L12.5934901,23.257841 Z M12.8583906,23.1452862 L12.8445485,23.1473072 L12.6598443,23.2396597 L12.6498822,23.2499052 L12.6498822,23.2499052 L12.6471943,23.2611114 L12.6650943,23.6906389 L12.6699349,23.7034178 L12.6699349,23.7034178 L12.678386,23.7104931 L12.8793402,23.8032389 C12.8914285,23.8068999 12.9022333,23.8029875 12.9078286,23.7952264 L12.9118235,23.7811639 L12.8776777,23.1665331 C12.8752882,23.1545897 12.8674102,23.1470016 12.8583906,23.1452862 L12.8583906,23.1452862 Z M12.1430473,23.1473072 C12.1332178,23.1423925 12.1221763,23.1452606 12.1156365,23.1525954 L12.1099173,23.1665331 L12.0757714,23.7811639 C12.0751323,23.7926639 12.0828099,23.8018602 12.0926481,23.8045676 L12.108256,23.8032389 L12.3092106,23.7104931 L12.3186497,23.7024347 L12.3186497,23.7024347 L12.3225043,23.6906389 L12.340401,23.2611114 L12.337245,23.2485176 L12.337245,23.2485176 L12.3277531,23.2396597 L12.1430473,23.1473072 Z" id="MingCute" fill-rule="nonzero"></path>
                <path d="M11.2061,4.4898 C12.9032,5.50806 14.9605,5.7339 16.8381,5.10804 L18.4189,4.58111 L17.1092,8.50999 C16.997,8.84656 17.0078,9.21201 17.1395,9.54141 L18.6776,13.3867 L16.2056,14.2107 C14.8819,14.6519 13.4315,14.4927 12.2351,13.7748 C10.3378,12.6364 8.01082,12.4986 6,13.3901 L6,6.99997 L6,4.98224 C6,4.75901 6.12612,4.55494 6.32578,4.45511 C7.89261,3.6717 9.65922,3.56169 11.2061,4.4898 Z M4,6.99997 L4,4.98224 C4,4.00147 4.55413,3.10487 5.43136,2.66626 C7.60702,1.57842 10.1053,1.49696 12.2351,2.77482 C13.4315,3.49269 14.8819,3.6519 16.2056,3.21067 L19.494,2.11453 C20.354,1.82789 21.1721,2.646 20.8854,3.50593 L19.0645,8.96869 L20.8891,13.5301 C21.1241,14.1178 20.816,14.782 20.2156,14.9822 L16.8381,16.108 C14.9605,16.7339 12.9032,16.5081 11.2061,15.4898 C9.8048,14.649 8.0711,14.5825 6.60946,15.3133 L6,15.618 L6,21 C6,21.5523 5.55228,22 5,22 C4.44772,22 4,21.5523 4,21 L4,16.618 L4,15 L4,6.99997 Z" id="形状" fill="#09244B"></path>
            </g>
        </g>
    </g>
</svg>

<svg xmlns="http://www.w3.org/2000/svg" width="24" height="24"><g fill="none" fill-rule="evenodd"><path d="M24 0v24H0V0zM12.593 23.258l-.011.002-.071.035-.02.004-.014-.004-.071-.035c-.01-.004-.019-.001-.024.005l-.004.01-.017.428.005.02.01.013.104.074.015.004.012-.004.104-.074.012-.016.004-.017-.017-.427c-.002-.01-.009-.017-.017-.018m.265-.113-.013.002-.185.093-.01.01-.003.011.018.43.005.012.008.007.201.093c.012.004.023 0 .029-.008l.004-.014-.034-.614c-.003-.012-.01-.02-.02-.022m-.715.002a.023.023 0 0 0-.027.006l-.006.014-.034.614c0 .012.007.02.017.024l.015-.002.201-.093.01-.008.004-.011.017-.43-.003-.012-.01-.01z"/><path fill="#09244B" d="M11.206 4.49a6.78 6.78 0 0 0 5.632.618l1.58-.527L17.11 8.51a1.5 1.5 0 0 0 .03 1.031l1.539 3.846-2.472.824a4.78 4.78 0 0 1-3.97-.436A6.78 6.78 0 0 0 6 13.39V4.982a.59.59 0 0 1 .326-.527c1.567-.783 3.333-.893 4.88.035M4 7V4.982c0-.98.554-1.877 1.431-2.316 2.176-1.088 4.674-1.169 6.804.109a4.78 4.78 0 0 0 3.97.436l3.289-1.096a1.1 1.1 0 0 1 1.391 1.39l-1.82 5.464 1.824 4.561a1.1 1.1 0 0 1-.673 1.452l-3.378 1.126a6.78 6.78 0 0 1-5.632-.618 4.78 4.78 0 0 0-4.597-.177L6 15.618V21a1 1 0 1 1-2 0v-6z"/></g></svg>
